images_elementary_svg/cmd/sc_exportdirecttoepub.svg

<svg height="16" width="16" xmlns="http://www.w3.org/2000/svg" xmlns:xlink="http://www.w3.org/1999/xlink"><linearGradient id="a" gradientTransform="matrix(.24324 0 0 .2973 2.162 1.865)" gradientUnits="userSpaceOnUse" x1="24" x2="24" y1="7.182" y2="40.818"><stop offset="0" stop-color="#fff"/><stop offset="0" stop-color="#fff" stop-opacity=".235"/><stop offset="1" stop-color="#fff" stop-opacity=".157"/><stop offset="1" stop-color="#fff" stop-opacity=".392"/></linearGradient><radialGradient id="b" cx="7.496" cy="8.45" gradientTransform="matrix(0 .779 -.9889 0 18.656 -3.145)" gradientUnits="userSpaceOnUse" r="20"><stop offset="0" stop-color="#5f5f5f"/><stop offset=".262" stop-color="#4f4f4f"/><stop offset=".705" stop-color="#3b3b3b"/><stop offset="1" stop-color="#2b2b2b"/></radialGradient><linearGradient id="c" gradientTransform="matrix(.4 0 0 .33333 .7 1)" gradientUnits="userSpaceOnUse" x1="24" x2="24" xlink:href="#d" y1="44" y2="3.899"/><linearGradient id="d"><stop offset="0" stop-color="#272727"/><stop offset="1" stop-color="#454545"/></linearGradient><linearGradient id="e" gradientTransform="matrix(.4 0 0 .05128 .7 .27)" gradientUnits="userSpaceOnUse" x1="24" x2="24" xlink:href="#d" y1="44" y2="3.899"/><linearGradient id="f" gradientTransform="matrix(1.0019 0 0 1.00147 -62.74 -28.482)" gradientUnits="userSpaceOnUse" x1="70.766" x2="70.766" y1="30.632" y2="44.038"><stop offset="0" stop-color="#9bdb4d"/><stop offset="1" stop-color="#68b723"/></linearGradient><linearGradient id="g" gradientTransform="matrix(1.3485 0 0 2.04184 -61.32 -33.946)" gradientUnits="userSpaceOnUse" x1="51.829" x2="51.829" y1="17.115" y2="17.605"><stop offset="0" stop-color="#fafafa"/><stop offset="1" stop-color="#d4d4d4"/></linearGradient><g stroke-linejoin="round"><path d="m13.49 2.304c-.095-.655-.035-1.17-.088-1.795h-9.892l.057 1.98" fill="url(#g)" stroke="#206b00" stroke-miterlimit="0" stroke-opacity=".498" stroke-width="1.017"/><g stroke-linecap="round"><path d="m4.5 2.5h-1.6c-.228 0-.4-.02-.4-.05v-1.396c0-.444.224-.554.516-.554h1.484" fill="#e9e9e9" stroke="url(#e)"/><path d="m3.5 2.5h10v13h-10z" fill="url(#f)" stroke="#206b00" stroke-miterlimit="0" stroke-opacity=".498"/><path d="m4.5 2.5v13h-1.6c-.228 0-.4-.138-.4-.317v-12.683z" fill="url(#b)" stroke="url(#c)"/></g></g><path d="m3.5 3.5h9v11h-9z" fill="none" opacity=".3" stroke="url(#a)" stroke-linecap="round"/><path d="m9 5.025c-.37 0-.74.14-1.018.416l-3.54 3.542c-.555.555-.554 1.48 0 2.036l3.54 3.54c.555.555 1.48.555 2.036 0l3.54-3.54c.554-.555.555-1.48 0-2.036l-.513-.513a.98.98 0 0 0 -.56-.277.98.98 0 0 0 -.278-.562l-2.19-2.19c-.275-.276-.647-.415-1.017-.415z" fill="#206b00" opacity=".15"/><path d="m9 12.514-2.514-2.514 2.514-2.514.838.838-1.676 1.676.838.838 2.514-2.514-2.19-2.19c-.18-.18-.47-.18-.648 0l-3.542 3.542c-.18.18-.18.47 0 .648l3.542 3.542c.18.18.47.18.648 0l3.542-3.542c.18-.18.18-.47 0-.648l-.514-.514z" fill="#206b00" opacity=".15"/><path d="m9 11.514-2.514-2.514 2.514-2.514.838.838-1.676 1.676.838.838 2.514-2.514-2.19-2.19c-.18-.18-.47-.18-.648 0l-3.542 3.542c-.18.18-.18.47 0 .648l3.542 3.542c.18.18.47.18.648 0l3.542-3.542c.18-.18.18-.47 0-.648l-.514-.514z" fill="#fff"/></svg>

<svg xmlns="http://www.w3.org/2000/svg" xmlns:xlink="http://www.w3.org/1999/xlink" height="16" width="16"><defs><linearGradient gradientTransform="matrix(.24324 0 0 .2973 2.162 1.865)" gradientUnits="userSpaceOnUse" xlink:href="#a" id="l" y2="40.818" x2="24" y1="7.182" x1="24"/><linearGradient id="a"><stop offset="0" stop-color="#fff"/><stop offset="0" stop-color="#fff" stop-opacity=".235"/><stop offset="1" stop-color="#fff" stop-opacity=".157"/><stop offset="1" stop-color="#fff" stop-opacity=".392"/></linearGradient><radialGradient gradientTransform="matrix(0 .779 -.9889 0 18.656 -3.145)" gradientUnits="userSpaceOnUse" xlink:href="#b" id="j" fy="8.45" fx="7.496" r="20" cy="8.45" cx="7.496"/><linearGradient id="b"><stop offset="0" stop-color="#5f5f5f"/><stop offset=".262" stop-color="#4f4f4f"/><stop offset=".705" stop-color="#3b3b3b"/><stop offset="1" stop-color="#2b2b2b"/></linearGradient><linearGradient gradientTransform="matrix(.4 0 0 .33333 .7 1)" gradientUnits="userSpaceOnUse" xlink:href="#c" id="k" y2="3.899" x2="24" y1="44" x1="24"/><linearGradient id="c"><stop offset="0" stop-color="#272727"/><stop offset="1" stop-color="#454545"/></linearGradient><linearGradient gradientTransform="matrix(.4 0 0 .05128 .7 .27)" gradientUnits="userSpaceOnUse" xlink:href="#d" id="h" y2="3.899" x2="24" y1="44" x1="24"/><linearGradient id="d"><stop offset="0" stop-color="#272727"/><stop offset="1" stop-color="#454545"/></linearGradient><linearGradient id="e"><stop offset="0" stop-color="#9bdb4d"/><stop offset="1" stop-color="#68b723"/></linearGradient><linearGradient id="f"><stop offset="0" stop-color="#fafafa"/><stop offset="1" stop-color="#d4d4d4"/></linearGradient><linearGradient y2="44.038" x2="70.766" y1="30.632" x1="70.766" gradientTransform="matrix(1.0019 0 0 1.00147 -62.74 -28.482)" gradientUnits="userSpaceOnUse" id="i" xlink:href="#e"/><linearGradient y2="17.605" x2="51.829" y1="17.115" x1="51.829" gradientTransform="matrix(1.3485 0 0 2.04184 -61.32 -33.946)" gradientUnits="userSpaceOnUse" id="g" xlink:href="#f"/></defs><path d="M13.49 2.304c-.095-.655-.035-1.17-.088-1.795H3.51l.057 1.98" style="isolation:auto;mix-blend-mode:normal;filter-blend-mode:normal;filter-gaussianBlur-deviation:0" fill="url(#g)" stroke="#206b00" stroke-width="1.017" stroke-linejoin="round" stroke-miterlimit="0" stroke-opacity=".498" color="#000" overflow="visible" solid-color="#000000"/><path d="M4.5 2.5H2.9c-.228 0-.4-.02-.4-.05V1.054C2.5.61 2.724.5 3.016.5H4.5" color="#000" overflow="visible" fill="#e9e9e9" stroke="url(#h)" stroke-linecap="round" stroke-linejoin="round"/><path style="isolation:auto;mix-blend-mode:normal" color="#000" overflow="visible" solid-color="#000000" fill="url(#i)" stroke="#206b00" stroke-linecap="round" stroke-linejoin="round" stroke-miterlimit="0" stroke-opacity=".498" d="M3.5 2.5h10v13h-10z"/><path d="M4.5 2.5v13H2.9c-.228 0-.4-.138-.4-.317V2.5z" color="#000" overflow="visible" fill="url(#j)" stroke="url(#k)" stroke-linecap="round" stroke-linejoin="round"/><path opacity=".3" fill="none" stroke="url(#l)" stroke-linecap="round" d="M3.5 3.5h9v11h-9z"/><path d="M9 5.025c-.37 0-.74.14-1.018.416l-3.54 3.542c-.555.555-.554 1.48 0 2.036l3.54 3.54c.555.555 1.48.555 2.036 0l3.54-3.54c.554-.555.555-1.48 0-2.036l-.513-.513a.98.98 0 0 0-.56-.277.98.98 0 0 0-.278-.562l-2.19-2.19C9.742 5.165 9.37 5.026 9 5.026z" style="isolation:auto;mix-blend-mode:normal" color="#000" overflow="visible" opacity=".15" solid-color="#000000" fill="#206b00"/><path d="M9 12.514L6.486 10 9 7.486l.838.838L8.162 10l.838.838 2.514-2.514-2.19-2.19c-.18-.18-.47-.18-.648 0L5.134 9.676c-.18.18-.18.47 0 .648l3.542 3.542c.18.18.47.18.648 0l3.542-3.542c.18-.18.18-.47 0-.648l-.514-.514L9 12.514z" style="isolation:auto;mix-blend-mode:normal;filter-blend-mode:normal;filter-gaussianBlur-deviation:0" opacity=".15" fill="#206b00" color="#000" overflow="visible" solid-color="#000000"/><path d="M9 11.514L6.486 9 9 6.486l.838.838L8.162 9 9 9.838l2.514-2.514-2.19-2.19c-.18-.18-.47-.18-.648 0L5.134 8.676c-.18.18-.18.47 0 .648l3.542 3.542c.18.18.47.18.648 0l3.542-3.542c.18-.18.18-.47 0-.648l-.514-.514L9 11.514z" fill="#fff"/></svg>
